X:059
T: Jackson's Wellcome Home
N: O'Farrell's Pocket Companion v.1 (Sky ed. p.44)
N: "Irish"
M: 6/8
L: 1/8
R: jig
Q: 320
K: G
d|gfg efg|dec BAG|gfg efg|dBG A3|gfg efg|
dec BAG|AFA BGB|cAF G2 :|
z|DED cAA|Bdg dBG|DED cAA|DBG A3|
DED cAA|Bcd efg|dec BcA|BGG G2 :|
